packages/icons/src/assets/tool-path-5.svg

<svg xmlns="http://www.w3.org/2000/svg" width="24" height="24"><g clip-path="url(#a)"><path d="M9.75 13.5v-.75h-1.5v.75a2.257 2.257 0 0 0 2.25 2.25h.75v-1.5h-.75a.75.75 0 0 1-.75-.75m3.75-5.25h-.75v1.5h.75c.412 0 .75.338.75.75v.75h1.5v-.75a2.257 2.257 0 0 0-2.25-2.25"/><path d="M18.75 3H10.5a2.257 2.257 0 0 0-2.25 2.25v3h-3A2.257 2.257 0 0 0 3 10.5v8.25A2.257 2.257 0 0 0 5.25 21h8.25a2.257 2.257 0 0 0 2.25-2.25v-3h3A2.257 2.257 0 0 0 21 13.5V5.25A2.257 2.257 0 0 0 18.75 3m.75 10.5c0 .412-.337.75-.75.75h-3v-1.5h-1.5v1.5h-1.5v1.5h1.5v3c0 .413-.338.75-.75.75H5.25a.75.75 0 0 1-.75-.75V10.5c0-.412.338-.75.75-.75h3v1.5h1.5v-1.5h1.5v-1.5h-1.5v-3c0-.412.338-.75.75-.75h8.25c.413 0 .75.338.75.75z"/></g><defs><clipPath id="a"><path d="M0 0h24v24H0z"/></clipPath></defs></svg>

<svg width="100%" height="100%" viewBox="0 0 24 24" version="1.1" xmlns="http://www.w3.org/2000/svg" xmlns:xlink="http://www.w3.org/1999/xlink" xml:space="preserve" style="fill-rule:evenodd;clip-rule:evenodd;stroke-linejoin:round;stroke-miterlimit:2;"><path d="M9.75,13.5L9.75,12.75L8.25,12.75L8.25,13.5C8.254,14.733 9.267,15.746 10.5,15.75L11.25,15.75L11.25,14.25L10.5,14.25C10.089,14.25 9.75,13.911 9.75,13.5M13.5,8.25L12.75,8.25L12.75,9.75L13.5,9.75C13.912,9.75 14.25,10.088 14.25,10.5L14.25,11.25L15.75,11.25L15.75,10.5C15.746,9.267 14.733,8.254 13.5,8.25" style="fill-rule:nonzero;"/><path d="M18.75,3L10.5,3C9.267,3.004 8.254,4.017 8.25,5.25L8.25,8.25L5.25,8.25C4.017,8.254 3.004,9.267 3,10.5L3,18.75C3.004,19.983 4.017,20.996 5.25,21L13.5,21C14.733,20.996 15.746,19.983 15.75,18.75L15.75,15.75L18.75,15.75C19.983,15.746 20.996,14.733 21,13.5L21,5.25C20.996,4.017 19.983,3.004 18.75,3M19.5,13.5C19.5,13.912 19.163,14.25 18.75,14.25L15.75,14.25L15.75,12.75L14.25,12.75L14.25,14.25L12.75,14.25L12.75,15.75L14.25,15.75L14.25,18.75C14.25,19.163 13.912,19.5 13.5,19.5L5.25,19.5C4.839,19.5 4.5,19.161 4.5,18.75L4.5,10.5C4.5,10.088 4.838,9.75 5.25,9.75L8.25,9.75L8.25,11.25L9.75,11.25L9.75,9.75L11.25,9.75L11.25,8.25L9.75,8.25L9.75,5.25C9.75,4.838 10.088,4.5 10.5,4.5L18.75,4.5C19.163,4.5 19.5,4.838 19.5,5.25L19.5,13.5Z" style="fill-rule:nonzero;"/></svg>
